X: 41266
T: Tucandeira Dance
R: reel
M: 4/4
K: Bminor
BBB fedfd|BBB f2eaf|BBB fedef|d2BF AAAF|
A2ee fedA|BBB fedfd|BBB f2 eaf|BBB fedef|1 d2BF AAAF:|2 d2ee fefa||
bbb fafef-|fefe aaaf|bbbf afef-|fdef d2fa|
bbb fafef-|fefe aaaf|bafe fedB|eeef edBA|1 BBBF A2fa:|2 BBBF A2FA||

